!!!COM: Anton (Friedrich Wilhelm von) Webern
!!!OTL: [T404_Web-w22p5m17-24]
**kern	**dynam	**kern	**dynam	**kern	**dynam
*part3	*part3	*part2	*part2	*part1	*part1
*staff3	*	*staff2	*	*staff1	*
*I"Violoncello	*	*I"Viola	*	*I"Violin I	*
*I'Vc.	*	*I'Vla.	*	*I'Vln. I	*
!!pagebreak:original
*clefF4	*	*clefC3	*	*clefG2	*
*k[]	*	*k[]	*	*k[]	*
*C:	*	*C:	*	*C:	*
*M2/8	*	*M2/8	*	*M2/8	*
=1	=1	=1	=1	=1	=1
!	!	!	!	!LO:TX:t=[16th]=52	!
32.r	.	64r	.	48r	.
.	.	64ccn'LLLL	p	.	.
.	.	.	.	48r	.
.	.	(64cc	>	.	.
!	!	!	!	!LO:TX:a:t=(pizz.)	!
.	.	.	.	48Gn~	p
!LO:TX:a:t=pizz.	!	!	!	!	!
64GG#X'	pp	64Bn'JJJJ)	]	.	.
48r	.	(64BLLLL	pp >	48r	.
.	.	64b-X')	.	.	.
!LO:TX:a:t=arco	!	!	!	!	!
24A~	< [ >	.	.	48r	pp
.	.	64b-'	.	.	.
!	!	!	!	!LO:TX:a:t=arco	!
.	.	.	.	[48ee-X	<
.	.	64b-'JJJJ	]	.	.
*	*	*clefG2	*	*	*
!LO:TX:a:t=pizz.	!	!	!	!	!
48r	]	64r'	.	24ee-]	[ >
.	.	(32dddnLLL	p >	.	.
48FFn~LLL	pp >	.	.	.	.
48En~JJJ	]	.	.	48r	]
.	.	64ff#X'JJJk)	.	.	.
*	*	*clefC3	*	*	*
16r	.	48r	]	64r	pp
.	.	.	.	(64ccnLLLL	<
!	!	!LO:TX:a:t=pizz.	!	!	!
.	.	48gn~LLL	pp	.	.
.	.	.	.	64bbn	[ >
.	.	48G#X~JJJ	.	.	.
.	.	.	.	64b-XJJJJ)	]
=2	=2	=2	=2	=2	=2
!LO:TX:a:t=(pizz.)	!	!LO:TX:a:t=arco	!	!	!
48r	.	32.r	.	64r	.
!	!	!	!	!LO:TX:a:t=pizz.	!
.	.	.	.	64aaan'LLLL	p >
48C#X'LLL	pp <	.	.	.	.
.	.	.	.	64eee-X'	.
48dn'JJJ	[	.	.	.	.
.	.	(64fnLLLL	p >	64een'JJJJ	.
64r	.	64F#X	.	48r	]
64GGn'LLLL	>	64cnJJJJ)	]	.	.
!	!	!	!	!LO:TX:a:t=arco	!
.	.	.	.	(48bnLLL	p <
64g#X'	.	32r	.	.	.
.	.	.	.	48bb-XJJJ	.
64An'JJJJ	]	.	.	.	.
!	!	!LO:TX:a:t=pizz.	!	!	!
32.r	.	64r	.	24ccc#XLL	[ >
.	.	64E-X'LLLL	pp >	.	.
.	.	64dn'JJJJ	.	.	.
.	.	.	.	48ffnJJk	.
64EEn'	pp	64r	]	.	.
48r	.	48r	.	64r	]
!	!	!	!	!LO:TX:a:t=pizz.	!
.	.	.	.	64f#X'LLLL	pp
!LO:TX:a:t=arco	!	!	!	!	!
24Cn~	pp < [ > ]	48r	.	.	.
.	.	.	.	64Gn'	.
!	!	!LO:TX:a:t=arco	!	!	!
.	.	([48bn	pp < [	.	.
.	.	.	.	64g#X'JJJJ	.
!!linebreak:original
=3	=3	=3	=3	=3	=3
32r	.	48bLLL]	>	32.r	.
.	.	48B-X	.	.	.
!LO:TX:a:t=pizz.	!	!	!	!	!
64AAn'LLLL	pp >	.	.	.	.
.	.	48cnJJJ)	.	.	.
!	!	!	!	!LO:TX:a:t=arco	!
64E-X'JJJJ	.	.	.	64ddn'	pp
!	!	!LO:TX:a:t=pizz.	!	!	!
16r	]	32.r	]	(48fnLLL	>
.	.	.	.	48een	.
.	.	.	.	48fff#XJJJ)	.
.	.	64Gn 64cn	ppp	.	.
*clefC4	*	*	*	*	*
!LO:TX:a:t=arco	!	!	!	!	!
48r	.	32r	.	32.r	]
(48bnLLL	p >	.	.	.	.
*	*	*clefG2	*	*	*
!	!	!LO:TX:a:t=arco	!	!	!
.	.	(64g#XLLLL	p <	.	.
48B-XJJJ)	]	.	.	.	.
.	.	64aanJJJJ)	[	64c#X'	p >
*clefF4	*	*	*	*	*
48r	.	48r	.	(32.ee-XLLL	.
24DDn~	pp < [ > ]	48r	.	.	.
*	*	*clefC3	*	*	*
!	!	!LO:TX:a:t=pizz.	!	!	!
.	.	48Fn~	pp	.	.
.	.	.	.	64enJJJk)	]
=4	=4	=4	=4	=4	=4
32r	.	16r	.	48r	.
.	.	.	.	(48ccnLLL	pp >
!LO:TX:a:t=pizz.	!	!	!	!	!
64Gn'LLLL	pp >	.	.	.	.
.	.	.	.	48BnJJJ)	]
64g#X'JJJJ	.	.	.	.	.
48r	]	32r	.	16r	.
48r	.	.	.	.	.
!	!	!LO:TX:a:t=arco	!	!	!
.	.	(16b-XLL	p <	.	.
48An~	pp	.	.	.	.
16r	.	.	.	48r	.
.	.	.	.	48r	.
.	.	16cc#X	[ >	.	.
*	*	*	*	*8va	*
.	.	.	.	(48eeee-X	p
*	*	*	*	*X8va	*
64FFn~LLLL	p >	.	.	48ddddnLLL	>
64En~	.	.	.	.	.
.	.	.	.	48ff#X	.
64r	.	32cnJJk)	]	.	.
.	.	.	.	48GnJJJ)	]
64BBn'JJJJ	]	.	.	.	.
=5	=5	=5	=5	=5	=5
16r	.	16r	.	(32g#XLLL	pp < <
.	.	.	.	32bb-XJ)	[
!LO:TX:a:t=(pizz.)	!	!LO:TX:a:t=pizz.	!	!	!
48r	.	32.r	.	16AnJJ	[ >
48C#X~LLL	pp >	.	.	.	.
48e-X~JJJ	.	.	.	.	.
*	*	*clefG2	*	*	*
.	.	64ddn'	pp	.	.
!	!	!LO:TX:a:t=am Steg	!	!	!
24r	]	40r	.	8r	]
!	!	!LO:TX:a:t=arco	!	!	!
.	.	(40ffnLLL	>	.	.
24En~LL	ppp >	.	.	.	.
.	.	40f#X	.	.	.
.	.	40cn	.	.	.
24Gn~JJ	]	.	.	.	.
.	.	40bnJJJ)	]	.	.
!!linebreak:original
=6	=6	=6	=6	=6	=6
!	!	!	!	!LO:TX:a:t=rit.	!
48r	.	16r	.	32.r	pp
!LO:TX:a:t=arco	!	!	!	!	!
[24GG#X	pp <	.	.	.	.
.	.	.	.	(64b-X	<
*	*	*clefC3	*	*	*
24GG#]	[ >	48r	pp	48aanLLL	[
.	.	24c#X~	< [ >	96ee-X'JJJk)	>
.	.	.	.	32r	]
48r	]	.	.	.	.
8r	.	8r	]	(16dddnLL	ppp >
.	.	.	.	16ffnJJ)	]
=7	=7	=7	=7	=7	=7
!	!	!	!	!LO:TX:a:t=rit.	!
!	!	!	!	!LO:TX:a:B:t=tempo	!
32r	.	16r	.	16r	.
32En'LLL	pp <	.	.	.	.
32f#X'	[ >	32.r	.	48r	.
.	.	.	.	(48ccnLLL	pp >
32Gn'JJJ	]	.	.	.	.
.	.	.	.	48BnJJJ)	.
.	.	([64gg#X	pp	.	.
32r	.	12gg#L]	<	16r	]
32BB-X'LLL	pp >	.	.	.	.
32An'JJJ	.	.	.	(32ccc#XLLL	pp
.	.	24dd#XJk)	] > ]	.	.
!	!	!	!	!LO:TX:a:B:t=tempo	!
32r	]	.	.	32dnJJJ)	.
=8	=8	=8	=8	=8	=8
16r	.	48r	.	16r	.
.	.	(48fnLLL	ppp	.	.
.	.	48EnJJJ)	.	.	.
*clefC4	*	*	*	*	*
!	!	!	!	!LO:TX:a:t=pizz.	!
32.r	.	48r	.	32f#X'LLL	ppp >
.	.	24Dn~	pp	.	.
.	.	.	.	32Gn'JJJ	.
64bn~	ppp	.	.	.	.
8r	.	8r	.	8r'	]
==	==	==	==	==	==
*-	*-	*-	*-	*-	*-
!!!system-decoration: [(s1,s2,s3)]
